X:842
T:Morpeth Rant, The
R:reel
S:Nathaniel Glasser
Z:id:hn-reel-842
M:C|
L:1/8
K:D
(3ABc | d2dA FDFA | BGBd cAce | dfaf gfed | c2e2 e2 (3ABc |
d2dA FDFA | BGBd cAce | dfaf gfed | A2d2 d2 :|
|: af | dfaf dfaf | gfef g2ef | gfed caag | fede f2fe |
dfaf dfaf | gfef g2ef |1 gfed caag | f2d2 d2 :|2 gfed cdeg | f2d2 d2 ||
P:more common version
|: (3ABc | d2AG FDFA | BGBd cAce | f2fd gfed | c2e2 e2 (3ABc|
d2AG FDFA| BGBd cAce| f2fd gfed | A2d2 d2 :|
|: A2 | dfaf dfaf | gfef g2ef | gfed cdeg | fefg f2fe |
dfaf dfaf | gfef g2ef | gfed caag | f2d2 d2 :|

